gama.ui.shared/icons_svg/dark/generic/menu.search.svg

<svg height="25" viewBox="-274.774 -3167.932 25 25" width="25" xmlns="http://www.w3.org/2000/svg"><g fill="none"><path d="m-270.4341-3167.4315h16.32c2.12077 0 3.84 1.7192 3.84 3.84v16.32c0 2.1208-1.71923 3.84-3.84 3.84h-16.32c-2.12077 0-3.84-1.7192-3.84-3.84v-16.32c0-2.1208 1.71923-3.84 3.84-3.84z" fill="#666"/><path d="m-270.4341-3167.4315h16.32c2.12077 0 3.84 1.7192 3.84 3.84v16.32c0 2.1208-1.71923 3.84-3.84 3.84h-16.32c-2.12077 0-3.84-1.7192-3.84-3.84v-16.32c0-2.1208 1.71923-3.84 3.84-3.84z" stroke="#fff" stroke-linecap="round" stroke-linejoin="round" stroke-width=".25"/><path d="m-257.82966-3151.96 3.42223 3.422c.17777.178.17777.4535 0 .6313-.17777.1777-.45334.1777-.63111 0l-3.42223-3.4223c-1.25333 1.111-2.89777 1.778-4.70223 1.778-3.92888 0-7.1111-3.1824-7.1111-7.1113 0-3.9287 3.18222-7.1111 7.1111-7.1111 3.9289 0 7.11112 3.1824 7.11112 7.1111 0 1.8043-.67555 3.4489-1.77778 4.7023zm-5.33334 1.52c3.44 0 6.22223-2.7823 6.22223-6.2223s-2.78223-6.2222-6.22223-6.2222-6.2222 2.7822-6.2222 6.2222 2.7822 6.2223 6.2222 6.2223z" fill="#c0e0ff"/></g></svg>

<?xml version="1.0" encoding="UTF-8" standalone="no"?>
<!DOCTYPE svg PUBLIC "-//W3C//DTD SVG 1.1//EN" "http://www.w3.org/Graphics/SVG/1.1/DTD/svg11.dtd">
<svg xmlns="http://www.w3.org/2000/svg" xmlns:xl="http://www.w3.org/1999/xlink" version="1.1" xmlns:dc="http://purl.org/dc/elements/1.1/" viewBox="-274.7741 -3167.9315 25 25" width="25" height="25">
  <defs/>
  <g id="SOURCES" stroke-opacity="1" fill="none" stroke="none" fill-opacity="1" stroke-dasharray="none">
    <title>SOURCES</title>
    <g id="SOURCES_Dark">
      <title>Dark</title>
      <g id="Graphic_11273">
        <path d="M -270.4341 -3167.4315 L -254.1141 -3167.4315 C -251.99333 -3167.4315 -250.2741 -3165.7123 -250.2741 -3163.5915 L -250.2741 -3147.2715 C -250.2741 -3145.1507 -251.99333 -3143.4315 -254.1141 -3143.4315 L -270.4341 -3143.4315 C -272.55487 -3143.4315 -274.2741 -3145.1507 -274.2741 -3147.2715 L -274.2741 -3163.5915 C -274.2741 -3165.7123 -272.55487 -3167.4315 -270.4341 -3167.4315 Z" fill="#666"/>
        <path d="M -270.4341 -3167.4315 L -254.1141 -3167.4315 C -251.99333 -3167.4315 -250.2741 -3165.7123 -250.2741 -3163.5915 L -250.2741 -3147.2715 C -250.2741 -3145.1507 -251.99333 -3143.4315 -254.1141 -3143.4315 L -270.4341 -3143.4315 C -272.55487 -3143.4315 -274.2741 -3145.1507 -274.2741 -3147.2715 L -274.2741 -3163.5915 C -274.2741 -3165.7123 -272.55487 -3167.4315 -270.4341 -3167.4315 Z" stroke="white" stroke-linecap="round" stroke-linejoin="round" stroke-width=".25"/>
      </g>
      <g id="Graphic_11272">
        <path d="M -257.82966 -3151.96 L -254.40743 -3148.538 C -254.22966 -3148.36 -254.22966 -3148.0845 -254.40743 -3147.9067 C -254.5852 -3147.729 -254.86077 -3147.729 -255.03854 -3147.9067 L -258.46077 -3151.329 C -259.7141 -3150.218 -261.35854 -3149.551 -263.163 -3149.551 C -267.09188 -3149.551 -270.2741 -3152.7334 -270.2741 -3156.6623 C -270.2741 -3160.591 -267.09188 -3163.7734 -263.163 -3163.7734 C -259.2341 -3163.7734 -256.05188 -3160.591 -256.05188 -3156.6623 C -256.05188 -3154.858 -256.72743 -3153.2134 -257.82966 -3151.96 Z M -263.163 -3150.44 C -259.723 -3150.44 -256.94077 -3153.2223 -256.94077 -3156.6623 C -256.94077 -3160.1023 -259.723 -3162.8845 -263.163 -3162.8845 C -266.603 -3162.8845 -269.3852 -3160.1023 -269.3852 -3156.6623 C -269.3852 -3153.2223 -266.603 -3150.44 -263.163 -3150.44 Z" fill="#c0e0ff"/>
      </g>
    </g>
  </g>
</svg>
